Alex-Andersen/wwwroot/icons/truck-solid.svg

<?xml version="1.0" encoding="utf-8"?>
<!-- Generator: Adobe Illustrator 26.0.1, SVG Export Plug-In . SVG Version: 6.00 Build 0)  -->
<svg version="1.1" id="Layer_1" focusable="false" xmlns="http://www.w3.org/2000/svg" xmlns:xlink="http://www.w3.org/1999/xlink"
	 x="0px" y="0px" viewBox="0 0 640 512" style="enable-background:new 0 0 640 512;" xml:space="preserve">
<style type="text/css">
	.st0{fill:#77A198;}
</style>
<path class="st0" d="M368,0c26.5,0,48,21.5,48,48v48h50.7c17,0,32.4,6.7,45.3,18.7l77.3,77.3c12,12,18.7,28.3,18.7,45.3V352
	c17.7,0,32,14.3,32,32s-14.3,32-32,32h-32c0,53-43,96-96,96c-53.9,0-96-43-96-96H256c0,53-43,96-96,96c-53.9,0-96-43-96-96H48
	c-26.5,0-48-21.5-48-48V48C0,21.5,21.5,0,48,0H368z M416,160v96h128v-18.7L466.7,160H416z M160,368c-26.5,0-48,21.5-48,48
	s21.5,48,48,48s48-21.5,48-48S186.5,368,160,368z M480,464c26.5,0,48-21.5,48-48s-21.5-48-48-48s-48,21.5-48,48S453.5,464,480,464z"
	/>
</svg>

<svg aria-hidden="true" focusable="false" data-prefix="fas" data-icon="truck" class="svg-inline--fa fa-truck" role="img" xmlns="http://www.w3.org/2000/svg" viewBox="0 0 640 512"><path fill="currentColor" d="M368 0C394.5 0 416 21.49 416 48V96H466.7C483.7 96 499.1 102.7 512 114.7L589.3 192C601.3 204 608 220.3 608 237.3V352C625.7 352 640 366.3 640 384C640 401.7 625.7 416 608 416H576C576 469 533 512 480 512C426.1 512 384 469 384 416H256C256 469 213 512 160 512C106.1 512 64 469 64 416H48C21.49 416 0 394.5 0 368V48C0 21.49 21.49 0 48 0H368zM416 160V256H544V237.3L466.7 160H416zM160 368C133.5 368 112 389.5 112 416C112 442.5 133.5 464 160 464C186.5 464 208 442.5 208 416C208 389.5 186.5 368 160 368zM480 464C506.5 464 528 442.5 528 416C528 389.5 506.5 368 480 368C453.5 368 432 389.5 432 416C432 442.5 453.5 464 480 464z"></path></svg>
